packages/foundations/assets/icons/functional/images/devices/mobile_phone_32.svg

<svg width="32" height="32" viewBox="0 0 32 32" fill="none" xmlns="http://www.w3.org/2000/svg">
<g clip-path="url(#clip0_185_720)">
<path fill-rule="evenodd" clip-rule="evenodd" d="M21 2C22.6569 2 24 3.34315 24 5V27C24 28.6569 22.6569 30 21 30H11C9.34315 30 8 28.6569 8 27V5C8 3.34315 9.34315 2 11 2H21ZM12 4H11C10.4477 4 10 4.44772 10 5V27C10 27.5523 10.4477 28 11 28H21C21.5523 28 22 27.5523 22 27V5C22 4.44772 21.5523 4 21 4H20C20 4.55228 19.5523 5 19 5H13C12.4477 5 12 4.55228 12 4ZM18 24C18.5523 24 19 24.4477 19 25C19 25.5523 18.5523 26 18 26H14C13.4477 26 13 25.5523 13 25C13 24.4477 13.4477 24 14 24H18Z" fill="#1A1C1F"/>
</g>
<defs>
<clipPath id="clip0_185_720">
<rect width="32" height="32" fill="white"/>
</clipPath>
</defs>
</svg>

<svg xmlns="http://www.w3.org/2000/svg" width="32" height="32" fill="none"><g clip-path="url(#a)"><path fill="#1A1C1F" fill-rule="evenodd" d="M21 2a3 3 0 0 1 3 3v22a3 3 0 0 1-3 3H11a3 3 0 0 1-3-3V5a3 3 0 0 1 3-3zm-9 2h-1a1 1 0 0 0-1 1v22a1 1 0 0 0 1 1h10a1 1 0 0 0 1-1V5a1 1 0 0 0-1-1h-1a1 1 0 0 1-1 1h-6a1 1 0 0 1-1-1m6 20a1 1 0 1 1 0 2h-4a1 1 0 1 1 0-2z" clip-rule="evenodd"/></g><defs><clipPath id="a"><path fill="#fff" d="M0 0h32v32H0z"/></clipPath></defs></svg>
